src/assets/filled/Be.svg

<?xml version="1.0" encoding="UTF-8"?>
<svg width="24" height="24" viewBox="0 0 24 24" xmlns="http://www.w3.org/2000/svg">
 <path d="m9 18.75h-6c-0.96 0-1.75-0.79-1.75-1.75v-10c0-0.96 0.79-1.75 1.75-1.75h5c2.07 0 3.75 1.68 3.75 3.75 0 1.03-0.42 1.96-1.09 2.64 1.24 0.61 2.09 1.89 2.09 3.36 0 2.07-1.68 3.75-3.75 3.75zm-6.25-6v4.25c0 0.14 0.11 0.25 0.25 0.25h6c1.24 0 2.25-1.01 2.25-2.25s-1.01-2.25-2.25-2.25h-6.25zm0-1.5h5.25c1.24 0 2.25-1.01 2.25-2.25s-1.01-2.25-2.25-2.25h-5c-0.14 0-0.25 0.11-0.25 0.25v4.25z"/>
 <path d="m19.67 18.75h-1.67c-2.62 0-4.75-2.13-4.75-4.75s2.13-4.75 4.75-4.75 4.75 2.13 4.75 4.75c0 0.41-0.34 0.75-0.75 0.75h-7.16c0.34 1.43 1.63 2.5 3.16 2.5h1.67c0.41 0 0.75 0.34 0.75 0.75s-0.34 0.75-0.75 0.75zm-4.83-5.5h6.33c-0.34-1.43-1.63-2.5-3.16-2.5s-2.83 1.07-3.17 2.5z"/>
 <path d="m19.5 8.25h-3c-0.41 0-0.75-0.34-0.75-0.75s0.34-0.75 0.75-0.75h3c0.41 0 0.75 0.34 0.75 0.75s-0.34 0.75-0.75 0.75z"/>
</svg>

<svg width="24" height="24" viewBox="0 0 24 24"  xmlns="http://www.w3.org/2000/svg">
<path d="M9 18.75H3C2.04 18.75 1.25 17.96 1.25 17V7C1.25 6.04 2.04 5.25 3 5.25H8C10.07 5.25 11.75 6.93 11.75 9C11.75 10.03 11.33 10.96 10.66 11.64C11.9 12.25 12.75 13.53 12.75 15C12.75 17.07 11.07 18.75 9 18.75ZM2.75 12.75V17C2.75 17.14 2.86 17.25 3 17.25H9C10.24 17.25 11.25 16.24 11.25 15C11.25 13.76 10.24 12.75 9 12.75H2.75ZM2.75 11.25H8C9.24 11.25 10.25 10.24 10.25 9C10.25 7.76 9.24 6.75 8 6.75H3C2.86 6.75 2.75 6.86 2.75 7V11.25Z" />
<path d="M19.67 18.75H18C15.38 18.75 13.25 16.62 13.25 14C13.25 11.38 15.38 9.25 18 9.25C20.62 9.25 22.75 11.38 22.75 14C22.75 14.41 22.41 14.75 22 14.75H14.84C15.18 16.18 16.47 17.25 18 17.25H19.67C20.08 17.25 20.42 17.59 20.42 18C20.42 18.41 20.08 18.75 19.67 18.75ZM14.84 13.25H21.17C20.83 11.82 19.54 10.75 18.01 10.75C16.48 10.75 15.18 11.82 14.84 13.25Z" />
<path d="M19.5 8.25H16.5C16.09 8.25 15.75 7.91 15.75 7.5C15.75 7.09 16.09 6.75 16.5 6.75H19.5C19.91 6.75 20.25 7.09 20.25 7.5C20.25 7.91 19.91 8.25 19.5 8.25Z" />
</svg>
